icon-svg/aqara-wirelessbutton.svg

<svg xmlns="http://www.w3.org/2000/svg" fill="#44739e" viewBox="0 0 24 24"><path d="M10.536 6.815c2.775-.188 5.028 2.126 5.028 5.185s-2.253 5.373-5.028 5.185C7.693 16.993 5.9 15.031 5.9 12s1.793-4.993 4.636-5.185m-8.452.203v9.964a4.315 4.315 0 0 0 3.905 4.269l9.03.683h.039c.22.023.441.04.671.051h.073c.092.006.183.008.274.007h.172a6.756 6.756 0 0 0 3.563-1.384 4.346 4.346 0 0 0 2.105-3.244V6.628a4.321 4.321 0 0 0-1.991-3.24A6.554 6.554 0 0 0 16.248 2h-.158c-.1 0-.193 0-.29.007h-.033l-9.778.739a4.315 4.315 0 0 0-3.905 4.272m.2-.011A4.106 4.106 0 0 1 6 2.948l9.783-.74c2.075-.156 3.746 1.672 3.746 4.06v11.443c0 2.388-1.671 4.216-3.746 4.06L6 21.031a4.106 4.106 0 0 1-3.714-4.059Zm.416 0v9.965a3.687 3.687 0 0 0 3.326 3.641l9.784.739c1.814.137 3.294-1.482 3.294-3.641V6.268c0-2.159-1.48-3.778-3.294-3.641l-9.784.739A3.687 3.687 0 0 0 2.7 7.007m2.78 4.983c0-3.25 1.963-5.4 5.028-5.6 3.026-.205 5.475 2.311 5.475 5.6s-2.449 5.808-5.475 5.6c-3.065-.205-5.028-2.351-5.028-5.6"/></svg>

<?xml version="1.0" encoding="UTF-8"?>
<svg width="24px" fill="#44739e" height="24px" viewBox="0 0 24 24" version="1.1" xmlns="http://www.w3.org/2000/svg" xmlns:xlink="http://www.w3.org/1999/xlink">
            <path d="m 10.536,6.815 c 2.775,-0.188 5.028,2.126 5.028,5.185 0,3.059 -2.253,5.373 -5.028,5.185 C 7.693,16.993 5.9,15.031 5.9,12 5.9,8.969 7.693,7.007 10.536,6.815 Z M 2.084,7.018 v 9.964 a 4.315,4.315 0 0 0 3.905,4.269 l 9.03,0.683 h 0.039 c 0.22,0.023 0.441,0.04 0.671,0.051 h 0.043 0.03 c 0.092,0.006 0.183,0.008 0.274,0.007 h 0.172 a 6.756,6.756 0 0 0 3.563,-1.384 4.346,4.346 0 0 0 2.105,-3.244 V 6.628 A 4.321,4.321 0 0 0 19.925,3.388 6.554,6.554 0 0 0 16.248,2 H 16.09 C 15.99,2 15.897,2 15.8,2.007 H 15.767 L 5.989,2.746 A 4.315,4.315 0 0 0 2.084,7.018 Z m 0.2,-0.011 A 4.106,4.106 0 0 1 6,2.948 l 9.783,-0.74 c 2.075,-0.156 3.746,1.672 3.746,4.06 v 11.443 c 0,2.388 -1.671,4.216 -3.746,4.06 L 6,21.031 A 4.106,4.106 0 0 1 2.286,16.972 Z M 16.248,2 V 2 Z M 2.7,7.007 v 9.965 a 3.687,3.687 0 0 0 3.326,3.641 l 9.784,0.739 c 1.814,0.137 3.294,-1.482 3.294,-3.641 V 6.268 c 0,-2.159 -1.48,-3.778 -3.294,-3.641 L 6.026,3.366 A 3.687,3.687 0 0 0 2.7,7.007 Z m 2.78,4.983 c 0,-3.25 1.963,-5.4 5.028,-5.6 3.026,-0.205 5.475,2.311 5.475,5.6 0,3.289 -2.449,5.808 -5.475,5.6 C 7.443,17.385 5.48,15.239 5.48,11.99 Z"/>

</svg>
